public/shapes/characters/220.svg

<?xml version="1.0" encoding="UTF-8"?>
<svg width="30.35px" height="157.6px" version="1.1" xmlns="http://www.w3.org/2000/svg" xmlns:cc="http://creativecommons.org/ns#" xmlns:dc="http://purl.org/dc/elements/1.1/" xmlns:rdf="http://www.w3.org/1999/02/22-rdf-syntax-ns#">
 <metadata>
  <rdf:RDF>
   <cc:Work rdf:about="">
    <dc:format>image/svg+xml</dc:format>
    <dc:type rdf:resource="http://purl.org/dc/dcmitype/StillImage"/>
    <dc:title/>
   </cc:Work>
  </rdf:RDF>
 </metadata>
 <path d="m3.152 114.4h25.216l-1.1125-71.384-9.2706-27.626-8.5289 2.4104-6.8602 34.487z" fill="#fff"/>
 <g transform="translate(15.2 78.8)" fill-rule="evenodd">
  <path d="m6.6-50.85q-3.1-10.4-7.25-10.4-4.25-0.05-7.35 14.4-2.85 13.3-3.2 30.7l0.1 36.95q4.2 10.55 14.05 12.45l7.9 0.05 0.1-16.35-12.35-0.05q-2.3-0.5-2.15-1.75 0.15-0.8 1.45-1.2l1.3-0.3 11.75 0.05 0.2-29.7-0.45-9.3-10.75-0.05q0.8 0.05 1.35 0.8 0.6 0.75 0.6 1.85t-0.6 1.85-1.45 0.75q-0.8 0-1.4-0.8-0.6-0.75-0.6-1.85 0.05-1.1 0.65-1.85t1.35-0.75h-2.5v-3l13.1 0.05q-1.25-13.75-3.85-22.55m6.2-27.95q1.1 2.85 1 6.75-0.15 7.85-6 13.4 4.05 7.65 6 23.5 1.1 9.05 1.35 19.15l-0.5 94.8h-29.65l-0.2-95q0.25-13.9 2.2-25.75 3.3-20.35 10.3-22.95h-0.4l2.1-0.45q2.55-0.75 4.85-1.95 7.25-3.95 8.95-11.5"/>
  <path d="m-4.7-28.35h1.05v3h-1.6q-2.65-0.05-2.65-1.3 0-0.8 1.6-1.3l1.6-0.4"/>
  <path d="m7.35-20.05q-0.8 0-1.4-0.8-0.6-0.75-0.6-1.85 0.05-1.1 0.65-1.85t1.4-0.75q0.85 0 1.4 0.8 0.6 0.75 0.6 1.85t-0.6 1.85-1.45 0.75"/>
  <path d="m2.45 18.65 3.75 0.05-0.05 7.75-3.75-0.05 0.05-7.75"/>
  <path d="m-6.05 6.35-1.6 4.55q-0.9 5.3 2.4 9.25-2.05-1.4-3.2-3.8-2.3-4.85 2.4-10"/>
 </g>
</svg>

<?xml version="1.0" encoding="UTF-8" standalone="no"?>
<svg xmlns:xlink="http://www.w3.org/1999/xlink" height="157.6px" width="30.35px" xmlns="http://www.w3.org/2000/svg">
  <g transform="matrix(1.0, 0.0, 0.0, 1.0, 15.2, 78.8)">
    <path d="M6.6 -50.85 Q3.5 -61.25 -0.65 -61.25 -4.9 -61.3 -8.0 -46.85 -10.85 -33.55 -11.2 -16.15 L-11.1 20.8 Q-6.9 31.35 2.95 33.25 L10.85 33.3 10.95 16.95 -1.4 16.9 Q-3.7 16.4 -3.55 15.15 -3.4 14.35 -2.1 13.95 L-0.8 13.65 10.95 13.7 11.15 -16.0 10.7 -25.3 -0.05 -25.35 Q0.75 -25.3 1.3 -24.55 1.9 -23.8 1.9 -22.7 1.9 -21.6 1.3 -20.85 0.7 -20.1 -0.15 -20.1 -0.95 -20.1 -1.55 -20.9 -2.15 -21.65 -2.15 -22.75 -2.1 -23.85 -1.5 -24.6 -0.9 -25.35 -0.15 -25.35 L-2.65 -25.35 -2.65 -28.35 10.45 -28.3 Q9.2 -42.05 6.6 -50.85 M12.8 -78.8 Q13.9 -75.95 13.8 -72.05 13.65 -64.2 7.8 -58.65 11.85 -51.0 13.8 -35.15 14.9 -26.1 15.15 -16.0 L14.65 78.8 -15.0 78.8 -15.2 -16.2 Q-14.95 -30.1 -13.0 -41.95 -9.7 -62.3 -2.7 -64.9 L-3.1 -64.9 -1.0 -65.35 Q1.55 -66.1 3.85 -67.3 11.1 -71.25 12.8 -78.8" fill="#000000" fill-rule="evenodd" stroke="none"/>
    <path d="M-4.7 -28.35 L-3.65 -28.35 -3.65 -25.35 -5.25 -25.35 Q-7.9 -25.4 -7.9 -26.65 -7.9 -27.45 -6.3 -27.95 L-4.7 -28.35" fill="#000000" fill-rule="evenodd" stroke="none"/>
    <path d="M7.35 -20.05 Q6.55 -20.05 5.95 -20.85 5.35 -21.6 5.35 -22.7 5.4 -23.8 6.0 -24.55 6.6 -25.3 7.4 -25.3 8.25 -25.3 8.8 -24.5 9.4 -23.75 9.4 -22.65 9.4 -21.55 8.8 -20.8 8.2 -20.05 7.35 -20.05" fill="#000000" fill-rule="evenodd" stroke="none"/>
    <path d="M2.45 18.65 L6.2 18.7 6.15 26.45 2.4 26.4 2.45 18.65" fill="#000000" fill-rule="evenodd" stroke="none"/>
    <path d="M-6.05 6.35 L-7.65 10.9 Q-8.55 16.2 -5.25 20.15 -7.3 18.75 -8.45 16.35 -10.75 11.5 -6.05 6.35" fill="#000000" fill-rule="evenodd" stroke="none"/>
    <path d="M-3.65 -23.95 L-3.65 -28.95 -2.65 -28.95 -2.65 -23.95 -3.65 -23.95" fill="#ffffff" fill-rule="evenodd" stroke="none"/>
  </g>
</svg>
